X:1
T: Mrs. Carmichael of Skirling' s Strathspey
C:Niel Gow
R:Strathspey
Q: 128
K:D
M:4/4
L:1/16
|:A,D3 D3F E3D EF3|A,D3 D3F EDEF B4|B3d BAGF GFED E3F|A,D3 D3F EDEF D4|
A,D3 D3F E3D EF3|A,D3 D3F EDEF B4|B3d BAGF GFED E3F|A,D3 D3F EDEF D4|
Ad3 d3f e3d ef3|Ad3 d3f e3f d4|B3d BAGF GFED E3F|A,D3 D3F E3F D4|
Ad3 d3f e3d ef3|Ad3 d3f e3f d2A2|BABd BAGF GFED E2F2|A,D3 D3F EDEF D4:|
